X:1
T:The fairy jig
R:Slip jig
S:François Champs (Jan/2005)
M:9/8
Q:1/4=120
L:1/8
K:G
|: A2G Add AdA | ABA AFA fAg | A2G Add ded | cAG cAG FDD :|
|: a3 fab afd | afd dfa baf | afa baf afd | cAG cAG FDD :|
